X:21
T: The Shepherd Adonis
N: HA021
O: Europa, Mitteleuropa, Deutschland
N: Vorschläge, Triller, Melismen weg
M: 3/4
L: 1/16
K: Gm
G3F | D4G4F4 | G4B4
c4 | d4F3GF2D2 | F8
G3F | D4G4F4 | G4B4
B3c | d4e2d2c2B2 | G8
d3e | f4e2d2c2B2 | B6
c2d4 | F4BG3FD3 | F8
B3A | G6F2G2A2B2 | D2E2F4
B2A2 | G4e2d2c2B2 | G8

